X:33
T:Shove That Pig's Foot...
T:...a Little Further in the Fire
M:C|
Z:abc-transcription Josh Larios <hades@elsewhere.org>, 2017.02.14
Z:abc-copyright This transcription is licensed under a Creative Commons Attribution-ShareAlike 4.0 International License.
S:Bruce Molsky, https://youtu.be/vBIjR39WYfM
G:Swing the eighths
G:Key: G
K:G
[P:A]y0|: B2- | "G"Bc BA GG EF | "C"GA GE "G"D2-DD | EF G2 B2- Bc | "D"B2 A4 B2- | 
| "G"Bc BA GG EF | "C"GA GE "G"D2-DD | EF G2 "D"B2- BF | "G"A2 G4 :|
[P:B]y|: GA | "G"Bd- de d2- dd | ed Bc dB G2 | B2 d2 g2- gg | "D"e2 d4 BA 
| "G"Bd- de d2- dd | ed Bc d2 d2 | B2- Bc "D"BA GB | "G"A2 G4 :|

